dist/svgs/core-ui-icons/brand/cib-trainerroad.svg

<svg xmlns="http://www.w3.org/2000/svg" width="32" height="32" viewBox="0 0 32 32">
  <path d="M 1.65625 8.304688 C 1.433594 8.808594 1.308594 9.089844 1.183594 9.367188 C 1.152344 9.4375 1.023438 9.730469 0.894531 10.023438 C 0.769531 10.308594 0.546875 10.804688 0.40625 11.125 C 0.265625 11.445312 0.136719 11.730469 0.125 11.769531 L 0.101562 11.835938 L 3.769531 11.835938 C 5.789062 11.835938 7.445312 11.839844 7.449219 11.847656 C 7.457031 11.851562 7.367188 12.152344 7.242188 12.515625 C 7.125 12.875 6.675781 14.242188 6.242188 15.546875 C 5.816406 16.851562 5.273438 18.492188 5.042969 19.1875 C 4.816406 19.882812 4.4375 21.027344 4.207031 21.734375 C 3.972656 22.4375 3.796875 23.023438 3.808594 23.03125 C 3.824219 23.039062 4.929688 23.046875 6.261719 23.046875 C 9.070312 23.046875 8.75 23.097656 8.898438 22.640625 C 9.117188 21.976562 10.199219 18.695312 10.566406 17.59375 C 10.785156 16.929688 11.296875 15.378906 11.703125 14.140625 C 12.109375 12.902344 12.457031 11.878906 12.46875 11.863281 C 12.484375 11.847656 13.300781 11.835938 14.351562 11.835938 C 16.515625 11.839844 16.28125 11.835938 16.28125 11.882812 C 16.28125 11.917969 15.21875 15.179688 15.148438 15.359375 C 15.128906 15.410156 15.109375 15.460938 15.109375 15.46875 C 15.105469 15.476562 14.914062 16.074219 14.671875 16.796875 C 14.433594 17.519531 14.238281 18.117188 14.234375 18.125 C 14.230469 18.136719 13.554688 20.199219 12.808594 22.445312 C 12.710938 22.753906 12.625 23.015625 12.625 23.023438 C 12.625 23.039062 13.726562 23.046875 15.078125 23.046875 C 17.488281 23.046875 17.53125 23.046875 17.589844 22.984375 C 17.621094 22.949219 17.710938 22.738281 17.777344 22.515625 C 17.851562 22.289062 18.066406 21.632812 18.257812 21.046875 C 18.449219 20.460938 18.609375 19.964844 18.613281 19.945312 C 18.625 19.875 18.636719 19.871094 18.925781 19.871094 C 19.078125 19.871094 19.816406 19.871094 20.5625 19.871094 L 21.925781 19.875 L 22.375 20.597656 C 22.625 20.992188 22.855469 21.367188 22.890625 21.425781 C 22.972656 21.558594 24.789062 24.46875 24.917969 24.671875 C 24.976562 24.757812 25.101562 24.960938 25.199219 25.117188 L 25.382812 25.40625 L 27.957031 25.40625 C 30.492188 25.40625 30.53125 25.40625 30.59375 25.34375 C 30.691406 25.246094 30.667969 25.164062 30.460938 24.84375 C 30.355469 24.679688 30.15625 24.371094 30.015625 24.15625 C 29.875 23.941406 29.691406 23.660156 29.609375 23.53125 C 29.523438 23.402344 29.164062 22.851562 28.804688 22.304688 C 28.449219 21.753906 28.15625 21.300781 28.15625 21.292969 C 28.15625 21.285156 28.140625 21.261719 28.121094 21.242188 C 28.101562 21.21875 27.90625 20.921875 27.683594 20.578125 C 27.460938 20.234375 27.1875 19.816406 27.074219 19.644531 C 26.960938 19.476562 26.875 19.332031 26.882812 19.328125 C 26.886719 19.320312 27.054688 19.242188 27.25 19.152344 C 29.742188 17.992188 31.210938 16.386719 31.667969 14.332031 C 31.773438 13.871094 31.796875 13.621094 31.796875 12.984375 C 31.796875 12.398438 31.777344 12.164062 31.703125 11.796875 C 31.523438 10.929688 31.148438 10.234375 30.519531 9.609375 C 30.132812 9.226562 29.757812 8.957031 29.273438 8.707031 C 28.6875 8.402344 27.898438 8.132812 27.320312 8.042969 C 27.257812 8.035156 27.195312 8.019531 27.183594 8.011719 C 27.164062 8.003906 26.804688 7.941406 26.609375 7.917969 C 26.539062 7.910156 26.457031 7.898438 26.421875 7.890625 C 26.386719 7.882812 26.242188 7.867188 26.09375 7.859375 C 25.945312 7.847656 25.792969 7.832031 25.75 7.820312 C 25.707031 7.804688 20.320312 7.792969 13.777344 7.789062 L 1.882812 7.78125 Z M 23.625 11.84375 C 24.882812 11.851562 25.113281 11.867188 25.5625 12.019531 C 25.898438 12.132812 26.167969 12.292969 26.378906 12.503906 C 26.996094 13.125 26.988281 14.132812 26.355469 14.796875 C 25.992188 15.179688 25.265625 15.492188 24.546875 15.578125 C 24.460938 15.589844 24.355469 15.605469 24.3125 15.617188 C 24.269531 15.628906 23.296875 15.640625 22.148438 15.648438 C 20.613281 15.65625 20.0625 15.652344 20.0625 15.625 C 20.0625 15.605469 20.199219 15.171875 20.367188 14.664062 C 20.539062 14.152344 20.816406 13.308594 20.988281 12.789062 L 21.296875 11.847656 L 21.421875 11.835938 C 21.492188 11.832031 21.75 11.832031 22 11.835938 C 22.25 11.835938 22.980469 11.839844 23.625 11.84375 Z M 23.625 11.84375"/>
</svg>

<svg xmlns="http://www.w3.org/2000/svg" viewBox="0 0 32 32"><path d="M1.656 8.305c-.222.504-.347.785-.472 1.062l-.29.656c-.124.286-.347.782-.488 1.102-.14.32-.27.605-.281.645l-.023.066H3.77c2.02 0 3.675.004 3.68.012.007.004-.083.304-.208.668-.117.359-.566 1.726-1 3.03a937.357 937.357 0 01-1.199 3.642c-.227.695-.606 1.84-.836 2.546-.234.703-.41 1.29-.398 1.297.015.008 1.12.016 2.453.016 2.808 0 2.488.05 2.636-.406.22-.664 1.301-3.946 1.668-5.047.22-.664.73-2.215 1.137-3.453.406-1.239.754-2.262.766-2.278.015-.015.832-.027 1.883-.027 2.164.004 1.93 0 1.93.047 0 .035-1.063 3.297-1.134 3.476a.92.92 0 00-.039.11c-.004.008-.195.605-.437 1.328-.238.723-.434 1.32-.438 1.328-.004.012-.68 2.074-1.425 4.32-.098.309-.184.57-.184.578 0 .016 1.102.024 2.453.024 2.41 0 2.453 0 2.512-.063.031-.035.12-.246.187-.468.075-.227.29-.883.48-1.47.192-.585.352-1.081.356-1.1.012-.071.024-.075.313-.075h1.637l1.363.004.449.723c.25.394.48.77.516.828.082.133 1.898 3.043 2.027 3.246.059.086.184.289.281.445l.184.29h2.574c2.535 0 2.574 0 2.637-.063.097-.098.074-.18-.133-.5l-.445-.688a73.026 73.026 0 01-.407-.625c-.086-.129-.445-.68-.804-1.226-.356-.551-.649-1.004-.649-1.012 0-.008-.015-.031-.035-.05a27.85 27.85 0 01-.437-.665c-.223-.344-.497-.762-.61-.933-.113-.168-.199-.313-.191-.317a5.45 5.45 0 01.367-.176c2.492-1.16 3.96-2.765 4.418-4.82.105-.46.129-.71.129-1.348 0-.586-.02-.82-.094-1.187a4.136 4.136 0 00-1.183-2.188 4.817 4.817 0 00-1.247-.902c-.585-.305-1.375-.574-1.953-.664a.541.541 0 01-.136-.031 8.297 8.297 0 00-.575-.094 2.315 2.315 0 01-.187-.027 3.152 3.152 0 00-.328-.032 3.18 3.18 0 01-.344-.039c-.043-.015-5.43-.027-11.973-.03L1.883 7.78zm21.969 3.539c1.258.008 1.488.023 1.938.176.335.113.605.273.816.484.617.621.61 1.629-.024 2.293-.363.383-1.09.695-1.808.781a2.618 2.618 0 00-.235.04c-.042.01-1.015.023-2.164.03-1.535.008-2.085.004-2.085-.023 0-.02.136-.453.304-.96.172-.513.45-1.356.621-1.876l.309-.941.125-.012a423.548 423.548 0 012.203.008zm0 0"/></svg>
